public/icons/product-guide-blob.svg

<svg width="100" height="104" viewBox="0 0 100 104" fill="none" xmlns="http://www.w3.org/2000/svg">
<path d="M15.862 94.2984C18.9012 97.396 22.4079 100.168 26.4322 101.863C29.9974 103.357 33.9633 103.75 37.6203 102.347C42.0287 100.652 45.1346 96.6696 47.2637 92.6118C48.7749 89.723 49.9689 86.6755 51.3799 83.7365C52.8911 80.5972 54.5443 77.4996 56.6316 74.6942C58.6271 72.0141 61.0902 69.6011 64.1293 68.1484C67.0933 66.7206 70.4748 66.4034 73.6892 66.9795C76.3276 67.447 78.8575 68.4239 81.5293 68.666C83.8838 68.8747 86.2382 68.3988 88.384 67.4387C89.0854 67.2466 89.7784 66.9795 90.4463 66.6204C92.8926 65.2845 94.7545 63.0302 96.1322 60.6423C99.1379 55.424 100.349 49.2957 99.9144 43.3259C98.8874 29.249 90.3545 16.7334 78.7907 9.01027C68.4793 2.13045 55.6631 -1.28442 43.3145 0.44389C37.1026 1.31222 31.0661 3.58323 25.8812 7.13168C20.8048 10.6133 16.2878 15.0301 12.4555 19.8393C5.25839 28.8649 0.808235 39.9194 0.106894 51.4665C-0.5527 62.2371 1.84355 73.35 7.2038 82.7346C9.5917 86.9092 12.4889 90.8585 15.862 94.2984Z" fill="#F7F7F7"/>
</svg>

<svg xmlns="http://www.w3.org/2000/svg" fill="none" viewBox="0 0 100 104"><path fill="#f7f7f7" d="M15.862 94.298c3.04 3.098 6.546 5.87 10.57 7.565 3.565 1.494 7.531 1.887 11.188.484 4.409-1.695 7.515-5.677 9.644-9.735 1.51-2.889 2.705-5.936 4.116-8.875 1.511-3.14 3.164-6.237 5.252-9.043 1.995-2.68 4.458-5.093 7.497-6.546 2.964-1.427 6.346-1.745 9.56-1.168 2.639.467 5.169 1.444 7.84 1.686 2.355.209 4.71-.267 6.855-1.227a9.8 9.8 0 0 0 2.062-.819c2.447-1.336 4.308-3.59 5.686-5.978 3.006-5.218 4.217-11.346 3.782-17.316-1.027-14.077-9.56-26.593-21.123-34.316C68.479 2.13 55.663-1.284 43.315.444c-6.212.868-12.249 3.14-17.434 6.688-5.076 3.481-9.593 7.898-13.425 12.707C5.258 28.865.808 39.92.106 51.467c-.659 10.77 1.738 21.883 7.098 31.268 2.388 4.174 5.285 8.124 8.658 11.563"/></svg>
